X: 27614
T: Moon And The Seven Stars, The
R: jig
M: 6/8
K: Cmajor
B|:c2G G2E|FGA G2G|ABc def|edc BAG|
c2G G2E|FGA G2G|ABc def|1 GcB c2B:|2 GcB c3||
|:d2G G2B|def e2e|def edc|BcA G3|
AFA GEG|AFA GEG|ABc def|1 GcB c3:|2 GcB c2B||

